**kern	**kern	**dynam
*part1	*part1	*part1
*staff2	*staff1	*
*I"Piano	*	*
*clefF4	*clefG2	*
*k[]	*k[]	*
=1	=1	=1
*	*tremolo	*
(2D	32B-X 32d 32gLLL	pp
.	32b-X	.
.	32B-X 32d 32g	.
.	32b-X	.
.	32B-X 32d 32g	.
.	32b-X	.
.	32B-X 32d 32g	.
.	32b-X	.
.	32B-X 32d 32g	.
.	32b-X	.
.	32B-X 32d 32g	.
.	32b-X	.
.	32B-X 32d 32g	.
.	32b-X	.
.	32B-X 32d 32g	.
.	32b-XJJJ	.
2C	32B- 32e-X 32gLLL	.
.	32b-	.
.	32B- 32e-X 32g	.
.	32b-	.
.	32B- 32e-X 32g	.
.	32b-	.
.	32B- 32e-X 32g	.
.	32b-	.
.	32B- 32e-X 32g	.
.	32b-	.
.	32B- 32e-X 32g	.
.	32b-	.
.	32B- 32e-X 32g	.
.	32b-	.
.	32B- 32e-X 32g	.
.	32b-JJJ	.
=	=	=
2D	32B-X 32d 32gLLL	.
.	32b-X	.
.	32B-X 32d 32g	.
.	32b-X	.
.	32B-X 32d 32g	.
.	32b-X	.
.	32B-X 32d 32g	.
.	32b-X	.
.	32B-X 32d 32g	.
.	32b-X	.
.	32B-X 32d 32g	.
.	32b-X	.
.	32B-X 32d 32g	.
.	32b-X	.
.	32B-X 32d 32g	.
.	32b-XJJJ	.
2E-X)	32c 32gLLL	.
.	32b-	.
.	32c 32g	.
.	32b-	.
.	32c 32g	.
.	32b-	.
.	32c 32g	.
.	32b-	.
.	32c 32g	.
.	32b-	.
.	32c 32g	.
.	32b-	.
.	32c 32g	.
.	32b-	.
.	32c 32g	.
.	32b-JJJ	.
=	=	=
(1D	32d 32gLLL	.
.	32b-X	.
.	32d 32g	.
.	32b-X	.
.	32d 32g	.
.	32b-X	.
.	32d 32g	.
.	32b-X	.
.	32d 32g	.
.	32b-X	.
.	32d 32g	.
.	32b-X	.
.	32d 32g	.
.	32b-X	.
.	32d 32g	.
.	32b-XJJJ	.
.	32c 32d 32f#XLLL	.
.	32a	.
.	32c 32d 32f#X	.
.	32a	.
.	32c 32d 32f#X	.
.	32a	.
.	32c 32d 32f#X	.
.	32a	.
.	32c 32d 32f#X	.
.	32a	.
.	32c 32d 32f#X	.
.	32a	.
.	32c 32d 32f#X	.
.	32a	.
.	32c 32d 32f#X	.
.	32aJJJ	.
=	=	=
2GG)	32Bn 32dLLL	.
.	32g	.
.	32Bn 32d	.
.	32g	.
.	32Bn 32d	.
.	32g	.
.	32Bn 32d	.
.	32g	.
.	32Bn 32d	.
.	32g	.
.	32Bn 32d	.
.	32g	.
.	32Bn 32d	.
.	32g	.
.	32Bn 32d	.
.	32gJJJ	.
4r	32B 32dLLL	<
.	32g	.
.	32B 32d	.
.	32g	.
.	32B 32d	.
.	32g	.
.	32B 32d	.
.	32g	.
4GGG 4GG	32B 32d	.
.	32g	.
.	32B 32d	.
.	32g	.
.	32B 32d	.
.	32g	.
.	32B 32d	.
.	32gJJJ	.
=	=	=
1FFF#X 1FF#X	32d 32f#XLLL	[ mp >
.	32b	.
.	32d 32f#X	.
.	32b	.
.	32d 32f#X	.
.	32b	.
.	32d 32f#X	.
.	32b	.
.	32d 32f#X	.
.	32b	.
.	32d 32f#X	.
.	32b	.
.	32d 32f#X	.
.	32b	.
.	32d 32f#X	.
.	32bJJJ	.
.	32c#X 32f#LLL	] pp
.	32a#X	.
.	32c#X 32f#	.
.	32a#X	.
.	32c#X 32f#	.
.	32a#X	.
.	32c#X 32f#	.
.	32a#X	.
.	32c#X 32f#	.
.	32a#X	.
.	32c#X 32f#	.
.	32a#X	.
.	32c#X 32f#	.
.	32a#X	.
.	32c#X 32f#	.
.	32a#XJJJ	.
=	=	=
2BBB 2BB	32BLLL	.
.	32b	.
.	32B	.
.	32b	.
.	32B	.
.	32b	.
.	32B	.
.	32b	.
.	32B	.
.	32b	.
.	32B	.
.	32b	.
.	32B	.
.	32b	.
.	32B	.
.	32bJJJ	.
8r	32BLLL	.
.	32b	.
.	32B	.
.	32b	.
8F#XL	32B	.
.	32b	.
.	32B	.
.	32b	.
8F#	32B	.
.	32b	.
.	32B	.
.	32b	.
8F#J	32B	.
.	32b	.
.	32B	.
.	32bJJJ	.
=	=	=
2.G^	32BLLL	.
.	32b	.
.	32B	.
.	32b	.
.	32B	.
.	32b	.
.	32B	.
.	32b	.
.	32B	.
.	32b	.
.	32B	.
.	32b	.
.	32B	.
.	32b	.
.	32B	.
.	32bJJJ	.
.	32BLLL	.
.	32b	.
.	32B	.
.	32b	.
.	32B	.
.	32b	.
.	32B	.
.	32b	.
(4E	32B	.
.	32b	.
.	32B	.
.	32b	.
.	32B	.
.	32b	.
.	32B	.
.	32bJJJ	.
*	*Xtremolo	*
=	=	=
*-	*-	*-
!!!system-decoration: {(s1,s2)}
